packages/core/src/svgs/cummies.svg

<svg width="24" height="24" viewBox="0 0 24 24" fill="none" xmlns="http://www.w3.org/2000/svg">
<g clip-path="url(#clip0_31_8913)">
<path d="M0 0H24V24H0V0Z" fill="url(#paint0_linear_31_8913)"/>
<path d="M13.4485 8.14307H11.1428L11.7343 6.42878H10.65L7.49997 14.1431H8.61854L9.42854 12.4288H11.7685L10.98 14.2588L9.32997 15.4288H5.77282L5.14282 14.2588L8.27139 6.31307L9.85711 5.14307H13.4485L14.1428 6.31307L13.4485 8.14307Z" fill="white"/>
<path fill-rule="evenodd" clip-rule="evenodd" d="M16.59 16.0501L15.3558 16.6759L15.9815 17.6187L15.4415 18.8573H13.2086L13.9286 17.143H12.8143L12.1243 18.8573H9.85718L13.7486 9.42871H18.0429L18.8572 10.6673L16.59 16.0501ZM13.7486 15.0216C13.7315 14.923 13.7143 14.8459 13.7186 14.803C13.7357 14.6701 13.7486 14.6401 13.9757 14.5287C13.7786 14.443 13.8172 14.1987 13.8643 14.0916C13.74 14.1216 13.4572 14.2116 13.29 14.3359C13.2343 13.8301 13.6543 13.5901 13.8729 13.5301C13.8215 13.4487 13.8086 13.0673 14.1686 12.1801C14.5286 11.2973 15.4672 10.8344 15.8915 10.7144C16.1229 11.1216 16.4957 12.1544 16.1357 13.0373C15.7757 13.9244 15.4929 14.1773 15.3986 14.1944C15.5186 14.4001 15.66 14.8844 15.2615 15.1887C15.2084 14.9762 15.1216 14.7736 15.0043 14.5887C14.9615 14.6959 14.82 14.893 14.61 14.803C14.7 15.0516 14.6915 15.0816 14.61 15.1887C14.58 15.223 14.5157 15.2616 14.43 15.3173C14.25 15.4244 13.9886 15.583 13.8 15.8573C13.839 15.5781 13.8216 15.2939 13.7486 15.0216Z" fill="white"/>
</g>
<defs>
<linearGradient id="paint0_linear_31_8913" x1="5.57143" y1="2.14286" x2="18.2143" y2="21.4286" gradientUnits="userSpaceOnUse">
<stop stop-color="#F000E1"/>
<stop offset="0.38" stop-color="#FD00B3"/>
<stop offset="0.74" stop-color="#FF00AA"/>
<stop offset="1" stop-color="#D517D1"/>
</linearGradient>
<clipPath id="clip0_31_8913">
<rect width="24" height="24" fill="white"/>
</clipPath>
</defs>
</svg>

<svg xmlns="http://www.w3.org/2000/svg" width="24" height="24" fill="none" viewBox="0 0 24 24"><g clip-path="url(#a)"><path fill="url(#b)" d="M0 0h24v24H0z"/><path fill="#fff" d="M13.449 8.143h-2.306l.591-1.714H10.65L7.5 14.143h1.119l.81-1.714h2.34l-.789 1.83-1.65 1.17H5.773l-.63-1.17L8.27 6.313l1.586-1.17h3.592l.694 1.17z"/><path fill="#fff" fill-rule="evenodd" d="m16.59 16.05-1.234.626.626.943-.54 1.238h-2.233l.72-1.714h-1.115l-.69 1.714H9.857L13.75 9.43h4.294l.814 1.238zm-2.841-1.028c-.018-.099-.035-.176-.03-.219.017-.133.03-.163.257-.274-.197-.086-.159-.33-.112-.437-.124.03-.407.12-.574.244-.056-.506.364-.746.583-.806-.051-.081-.064-.463.296-1.35.36-.883 1.298-1.346 1.723-1.466.23.408.604 1.44.244 2.323-.36.887-.643 1.14-.737 1.157.12.206.261.69-.137.995a2 2 0 0 0-.258-.6c-.043.107-.184.304-.394.214.09.249.082.279 0 .386-.03.034-.094.073-.18.128-.18.107-.441.266-.63.54.039-.279.022-.563-.051-.835" clip-rule="evenodd"/></g><defs><linearGradient id="b" x1="5.571" x2="18.214" y1="2.143" y2="21.429" gradientUnits="userSpaceOnUse"><stop stop-color="#F000E1"/><stop offset=".38" stop-color="#FD00B3"/><stop offset=".74" stop-color="#F0A"/><stop offset="1" stop-color="#D517D1"/></linearGradient><clipPath id="a"><path fill="#fff" d="M0 0h24v24H0z"/></clipPath></defs></svg>
